X:1
T:By and By (Blackall)
T:Horatio Richmond Palmer (1834-1907)
T:By and By (Blackall)
T:Public Domain
T:Public Domain
T:Public Domain
C:Horatio Richmond Palmer (1834-1907)
Z:Public Domain
%%score ( 1 2 ) ( 3 4 )
L:1/8
M:4/4
K:G
V:1 treble 
V:2 treble 
V:3 bass 
V:4 bass 
V:1
 [B,D] | [B,D]>[^A,^C] [B,D]>[=CE] [B,D]2 [G,B,]>[B,D] | %2
w: 1.~The|prize is set be- fore us, To|
w: 2.~We’ll|fol- low where He lead- eth, We’ll|
w: 3.~Our|home is bright a- bove us, No|
 [B,G]>[B,F] [B,G]>[CA] [B,G]2 [B,D]>[B,G] | [DB]>[^C^A] [DB]>[E=c] [DB][DB][DA][EG] | %4
w: win, His words im- plore us, The|eye of God is o’er us From on|
w: pas- ture where He feed- eth, We’ll|yield to Him who plead- eth From on|
w: tri- als dark to move us, But|Je- sus dear to love us There on|
 (F2 A>G F2) ([GB][Ac]) | [Gd][Gd] [Gd]>[Ge] [Gd][DB]([B,G][CA]) | %6
w: high; * * * His *|ing tones are call- ing While sin *|
w: high; * * * Then *|from Him shall sev- er, Our hope *|
w: high; * * * We’ll *|him best en- dea- vor, And praise *|
 [DB][DB] [DB]>[Ec] [DB][CA] ([EG]>[CE]) | [B,D][B,D] [B,D]>[B,D] [A,D][A,D][CE][CF] | %8
w: is dark, ap- pall- ing, ’Tis Je- *|sus gent- ly call- ing, He is nigh.|
w: shall bright- en ev- er, And faith *|shall fail us nev- er, He is nigh.|
w: His name for- ev- er; His pre- *|cious words can nev- er, Nev- er die.|
 (B,2 B,>C D2) ||"^Refrain" [GB]>[Ac] | [Bd]2 [Bd]>[ce] [Bd]<[GB] [GB]>[FA] | %11
w: |||
w: By * * *|by we|shall meet Him, By and by we|
w: |||
 [EG]2 [EG]>[FA] [EG]<[CE] [EG]>[CE] | [B,D][B,G][DG][DG] [DG][DB][GB][GB] | %13
w: ||
w: shall greet Him, And with Je- sus|reign in glo- ry, By and by; By|
w: ||
 (F2 G>G F2) [GB]>[Ac] | [Bd]2 [Bd]>[ce] [Bd]<[GB] [GB]>[FA] | %15
w: ||
w: and * * * by we|meet Him, By and by we shall|
w: ||
 [EG]2 [EG]>[FA] [EG]<[CE] [EG]>[CE] | [B,D][B,D][B,D][B,D] [A,D][A,D][CE][CF] | [B,G]6 z |] %18
w: |||
w: greet Him, And with Je- sus reign|in glo- ry, By and by. * *||
w: |||
V:2
 x | x8 | x8 | x8 | d6 x2 | x8 | x8 | x8 | G6 || x2 | x8 | x8 | x8 | A6 x2 | x8 | x8 | x8 | x7 |] %18
w: ||||lov-||||||||||||||
w: ||||naught||||and|||||shall|||||
w: ||||give||||||||||||||
V:3
 [G,,G,] | [G,,G,]>[G,,G,] [G,,G,]>[G,,G,] [G,,G,]2 [G,,D,]>[G,,G,] | %2
 [G,,G,]>[G,,G,] [G,,G,]>[G,,G,] [G,,G,]2 [G,,G,]>[G,,G,] | G,>G, G,>G, G,G,[F,A,][E,A,] | %4
 (A,2 C>B, A,2) G,2 | [G,B,][G,B,] [G,B,]>[G,C] [G,B,]G, G,2 | %6
 [G,,G,][G,,G,] [G,,G,]>[G,,G,] [G,,G,][G,,G,] [C,G,]2 | %7
 [D,G,][D,G,] [D,G,]>[D,G,] [D,F,][D,G,][D,G,][D,A,] | (G,2 G,>A, B,2) || G,>G, | %10
 G,2 G,>G, G,<G, G,>G, | [C,G,]2 [C,G,]>[C,G,] [C,G,]<[C,G,] [C,G,]>[C,G,] | %12
 [G,,G,][G,,D,][B,,G,][B,,G,] [D,B,][D,G,]G,[G,B,] | ([D,D]2 [A,,^C]>[A,,C] [D,D]2) G,>G, | %14
 G,2 G,>G, G,<G, G,>G, | [C,G,]2 [C,G,]>[C,G,] [C,G,]<[C,G,] [C,G,]>[C,G,] | %16
 [D,G,][D,G,][D,G,][D,G,] [D,F,][D,F,][D,G,][D,A,] | [G,,G,]6 z |] %18
V:4
 x | x8 | x8 | G,>G, G,>G, G,G, x2 | D,6 G,2 | x5 G, G,2 | x8 | x8 | G,,6 || G,>G, | %10
 G,2 G,>G, G,<G, G,>G, | x8 | x6 G, x | x6 G,>G, | G,2 G,>G, G,<G, G,>G, | x8 | x8 | x7 |] %18

